app/assets/images/Contenido/Odin/Niños.svg

<svg fill="none" height="130" viewBox="0 0 117 130" width="117" xmlns="http://www.w3.org/2000/svg"><circle cx="57.8345" cy="45.4964" r="44.3397" stroke="#000" stroke-width="2.31337"/><g fill="#000"><path d="m40.9081 110.655h2.6202v14.218h-2.1734l-7.8402-9.628v9.628h-2.6202v-14.218h2.1733l7.8403 9.628zm7.4659 1.584c-.9343 0-1.6249-.67-1.6249-1.523s.6906-1.524 1.6249-1.524 1.6249.63 1.6249 1.463c0 .894-.6702 1.584-1.6249 1.584zm-1.2796 12.634v-10.846h2.5389v10.846zm9.9133-13.67c-.5687 0-.9546.447-.9953 1.219h-1.3608c.0406-1.666.8937-2.722 2.1936-2.722 1.3406 0 2.0312 1.341 2.7624 1.341.5687 0 .9546-.427.9953-1.158h1.3608c-.0406 1.584-.8937 2.661-2.1936 2.661-1.3406 0-2.0312-1.341-2.7624-1.341zm2.1124 2.702c2.5999 0 4.5295 1.482 4.5295 4.753v6.215h-2.539v-5.89c0-1.93-.9546-2.864-2.5795-2.864-1.8078 0-3.0265 1.097-3.0265 3.27v5.484h-2.5389v-10.846h2.4171v1.401c.8328-.995 2.153-1.523 3.7373-1.523zm12.7243 11.11c-3.3311 0-5.7685-2.315-5.7685-5.565s2.4374-5.545 5.7685-5.545c3.3717 0 5.7888 2.295 5.7888 5.545s-2.4171 5.565-5.7888 5.565zm0-2.173c1.8483 0 3.2295-1.32 3.2295-3.392s-1.3812-3.392-3.2295-3.392c-1.8281 0-3.2093 1.32-3.2093 3.392s1.3812 3.392 3.2093 3.392zm11.568 2.173c-1.8077 0-3.6154-.528-4.5904-1.219l.975-1.929c.9546.63 2.4171 1.076 3.7779 1.076 1.6047 0 2.2749-.446 2.2749-1.198 0-2.072-6.7028-.122-6.7028-4.448 0-2.052 1.8484-3.392 4.7732-3.392 1.4422 0 3.0874.345 4.0624.934l-.975 1.93c-1.0359-.61-2.0718-.813-3.1077-.813-1.5437 0-2.2749.508-2.2749 1.219 0 2.194 6.7029.244 6.7029 4.489 0 2.031-1.8687 3.351-4.9155 3.351z"/><path d="m49.7157 42.9671c3.9336 0 7.1337-2.6001 7.1337-5.7961 0-.2365-.0939-.4633-.2611-.6306-.1673-.1672-.3941-.2611-.6306-.2611s-.4633.0939-.6305.2611c-.1672.1673-.2612.3941-.2612.6306 0 1.9847-1.9315 3.6365-4.4585 3.9558v-2.83c.0943-.0471.1848-.1015.2706-.1627l1.5133-1.0799c.2777-.2016.5034-.4664.6584-.7725.1549-.3062.2347-.6449.2327-.988 0-1.1773-.9212-2.1351-2.0534-2.1351h-3.0268c-1.1323 0-2.0534.9578-2.0534 2.1351-.002.3431.0777.6818.2327.988.1549.3061.3806.5709.6583.7725l1.5134 1.0799c.0858.0613.1763.1157.2707.1627v2.83c-2.527-.3193-4.4585-1.9711-4.4585-3.9558 0-.2365-.094-.4633-.2612-.6306-.1672-.1672-.3941-.2611-.6306-.2611s-.4633.0939-.6305.2611c-.1672.1673-.2612.3941-.2612.6306 0 3.196 3.2002 5.7961 7.1337 5.7961zm-1.6396-7.3649c-.0463-.0367-.0834-.0838-.1084-.1374-.0249-.0536-.0369-.1123-.0352-.1714 0-.1906.1238-.3517.27-.3517h3.0269c.1464 0 .27.1611.27.3517.0017.0591-.0103.1178-.0353.1714-.0249.0536-.062.1007-.1084.1374l-1.5133 1.0799c-.0363.0279-.0807.0431-.1265.0431-.0457 0-.0902-.0152-.1265-.0431z"/><path d="m55.066 33.1583c.4925 0 .8917-.3992.8917-.8917s-.3992-.8917-.8917-.8917c-.4924 0-.8917.3992-.8917.8917s.3993.8917.8917.8917z"/><path d="m44.3656 33.1583c.4925 0 .8917-.3992.8917-.8917s-.3992-.8917-.8917-.8917-.8917.3992-.8917.8917.3992.8917.8917.8917z"/><path d="m72.9104 50.9926c.7054 0 1.395-.2092 1.9816-.6011s1.0437-.949 1.3137-1.6007c.27-.6518.3406-1.369.203-2.0609s-.4774-1.3274-.9762-1.8263c-.4988-.4988-1.1344-.8385-1.8263-.9761-.6919-.1377-1.4091-.067-2.0608.2029-.6518.27-1.2088.7272-1.6008 1.3137-.3919.5866-.6011 1.2762-.6011 1.9817.0011.9456.3772 1.8523 1.0459 2.5209.6687.6687 1.5753 1.0449 2.521 1.0459zm0-5.3503c.3527 0 .6975.1046.9908.3006s.5218.4745.6568.8004.1703.6845.1015 1.0304c-.0688.346-.2386.6637-.4881.9131-.2494.2495-.5672.4193-.9131.4881-.346.0688-.7045.0335-1.0304-.1015-.3259-.1349-.6044-.3635-.8004-.6568s-.3006-.6381-.3006-.9908c.0006-.4728.1887-.9261.523-1.2605.3343-.3343.7876-.5224 1.2605-.523z"/><path d="m85.3944 52.776h-5.3502v-11.5923c.0001-.183-.0564-.3615-.1617-.5111l-6.242-8.9171c-.0822-.1175-.1915-.2134-.3187-.2796s-.2684-.1008-.4118-.1008-.2846.0346-.4118.1008-.2365.1621-.3187.2796l-6.242 8.9171c-.105.1497-.1612.3282-.1608.5111v5.5802c-1.2211-1.6416-2.8502-3.0037-4.8618-4.0544 1.9861-2.3345 3.0684-5.3679 3.0684-8.6595.0046-1.4545-.216-2.9009-.654-4.2878.8685-.4585 1.6166-1.1154 2.1835-1.9174s.9365-1.7264 1.0788-2.6982c.1423-.9717.0534-1.9633-.2597-2.8942-.313-.9309-.8413-1.7748-1.5418-2.463-.7006-.6883-1.5537-1.2016-2.49-1.4981-.9362-.2965-1.9293-.3679-2.8983-.2084-.9691.1595-1.8869.5454-2.6787 1.1263-.7918.581-1.4354 1.3406-1.8784 2.2171-1.6611-.5118-3.3908-.7654-5.1288-.752-1.738-.0134-3.4676.2403-5.1285.7521-.443-.8765-1.0866-1.6361-1.8784-2.2171-.7919-.5809-1.7096-.9669-2.6787-1.1264-.969-.1595-1.9621-.0881-2.8983.2084-.9363.2965-1.7894.8098-2.49 1.498-.7006.6883-1.2288 1.5322-1.5419 2.4631-.313.9308-.402 1.9224-.2597 2.8942.1423.9717.5119 1.8962 1.0788 2.6982.5668.802 1.3149 1.4589 2.1834 1.9174-.4381 1.3869-.6588 2.8333-.6542 4.2878 0 3.2916 1.0828 6.3251 3.0685 8.6595-4.3413 2.2674-6.9009 5.9862-7.426 10.8275-.0012.0112-.0023.0223-.0031.0335l-.0857 1.2241c-.0028.0402-.0028.0806 0 .1208.0713 1.0438.4465 2.0439 1.0792 2.8771s1.4954 1.463 2.4817 1.812c-.5884 1.2057-.8921 2.5304-.888 3.872 0 4.4251 3.2002 8.0254 7.1338 8.0254 2.1178 0 4.0219-1.0446 5.3296-2.6987 1.1004.6006 2.3339.9153 3.5875.9153s2.4871-.3147 3.5875-.9153c1.3077 1.6541 3.2118 2.6987 5.3296 2.6987 2.7951 0 5.2184-1.8186 6.3879-4.4585h20.3635c.2365 0 .4633-.094.6306-.2612.1672-.1672.2611-.394.2611-.6305v-12.484c0-.2365-.0939-.4633-.2611-.6306-.1673-.1672-.3941-.2611-.6306-.2611zm-12.484-18.9545 4.5294 6.4705h-9.0587zm-5.3502 8.2539h10.7005v10.7006h-10.0225c-.1405-.9113-.3676-1.807-.678-2.6752zm-2.6744 17.5228c.8403-.3016 1.5923-.8074 2.1885-1.472h1.3776v3.5669h-2.855c-.1458-.726-.3849-1.4301-.7111-2.0949zm1.6801-5.8853.0803 1.1429c-.0642.7548-.3665 1.4696-.8634 2.0414-.4968.5718-1.1625.971-1.901 1.1399-1.1178-1.3616-2.6483-2.2864-4.3659-2.5234-.1624-3.6269-1.3849-6.9735-3.3824-9.3165 1.2594-.532 2.4272-1.2589 3.4606-2.1539 4.0847 1.9566 6.4914 5.2875 6.9718 9.669zm-6.1495-33.9303c.9798-.0004 1.9324.3221 2.7105.9174.7782.5953 1.3386 1.4303 1.5946 2.3761.256.9457.1934 1.9494-.1782 2.856-.3716.9065-1.0314 1.6655-1.8775 2.1594-.6225-1.3043-1.4674-2.4904-2.4968-3.5048-1.0623-1.0419-2.2968-1.8922-3.649-2.5131.3871-.6938.9523-1.2718 1.6371-1.6745.6849-.4027 1.4648-.6155 2.2593-.6165zm-25.8597 4.4585c-.0002-.9878.3275-1.9477.9319-2.729.6043-.7813 1.451-1.3399 2.4071-1.5879.9562-.248 1.9676-.1715 2.8755.2175.908.389 1.661 1.0685 2.141 1.9319-1.3522.6209-2.5868 1.4711-3.649 2.5131-1.0295 1.0144-1.8744 2.2003-2.4968 3.5047-.6719-.3936-1.2292-.956-1.6168-1.6313-.3876-.6754-.592-1.4403-.5929-2.219zm5.957 1.6171c2.2623-2.2246 5.4447-3.4005 9.2022-3.4005 3.7574 0 6.9398 1.1759 9.2022 3.4007 2.1163 2.081 3.2817 4.9901 3.2817 8.1916 0 3.2014-1.1654 6.1106-3.2817 8.1916-2.2624 2.2247-5.4445 3.4007-9.2022 3.4007-3.7578 0-6.9399-1.176-9.2022-3.4006-2.1164-2.0811-3.2818-4.9903-3.2818-8.1917 0-3.2015 1.1654-6.1106 3.2818-8.1918zm-7.728 28.9973.08-1.1429c.4805-4.3819 2.8869-7.7128 6.9718-9.6696 1.038.8989 2.2115 1.6281 3.4771 2.1608-1.9916 2.3437-3.2154 5.7001-3.3787 9.3095-1.7191.2372-3.2513 1.1639-4.3692 2.5271-.7421-.1659-1.4119-.5643-1.912-1.137-.5002-.5728-.8046-1.2902-.869-2.0479zm8.0231 14.863c-2.9503 0-5.3503-2.8001-5.3503-6.242s2.4-6.242 5.3503-6.242c2.9502 0 5.3502 2.8001 5.3502 6.242s-2.4 6.242-5.3502 6.242zm8.9171-1.7834c-.9191-.003-1.8241-.2259-2.6395-.6498.5677-1.1893.8603-2.491.8561-3.8088 0-4.0771-2.7172-7.4515-6.2211-7.9574.1715-3.4777 1.4209-6.6567 3.4271-8.6804 1.4894.3987 3.0255.5961 4.5674.587 1.547.0093 3.0883-.1894 4.5824-.5908 2.0126 2.0232 3.262 5.1896 3.4324 8.6844-3.504.5055-6.2214 3.8799-6.2214 7.9572-.0042 1.3178.2884 2.6195.8561 3.8088-.8155.4239-1.7205.6468-2.6395.6498zm8.9171 1.7834c-2.9502 0-5.3503-2.8001-5.3503-6.242s2.4001-6.242 5.3503-6.242c2.9503 0 5.3503 2.8001 5.3503 6.242s-2.4 6.242-5.3503 6.242zm7.1337-6.242h3.5669c.2365 0 .4633-.0939.6305-.2612.1673-.1672.2612-.394.2612-.6305v-5.3503c0-.2365-.0939-.4633-.2612-.6305-.1672-.1672-.394-.2612-.6305-.2612h-1.2086c.1635-.46.2627-.9403.2949-1.4274.0027-.0402.0027-.0806 0-.1208l-.0165-.2352h3.6053v10.7005h-6.4218c.1194-.5869.1796-1.1844.1798-1.7834zm18.726 1.7834h-10.7005v-10.7005h10.7005z"/><path d="m76.4774 63.4766h5.3503c.152 0 .3014-.0389.4342-.1129.1327-.074.2444-.1808.3243-.3101s.1254-.2768.1322-.4287c.0069-.1518-.0252-.3029-.0932-.4389l-2.6752-5.3502c-.074-.1481-.1879-.2727-.3287-.3597-.1409-.0871-.3032-.1332-.4688-.1332s-.3279.0461-.4687.1332c-.1409.087-.2547.2116-.3288.3597l-2.6751 5.3502c-.068.136-.1001.2871-.0933.4389.0068.1519.0523.2994.1323.4287.0799.1293.1915.2361.3242.3101.1328.074.2823.1129.4343.1129zm2.6751-4.248 1.2324 2.4645h-2.4647z"/></g></svg>

<svg width="117" height="130" viewBox="0 0 117 130" fill="none" xmlns="http://www.w3.org/2000/svg">
<circle cx="57.8345" cy="45.4964" r="44.3397" stroke="black" stroke-width="2.31337"/>
<path d="M40.9081 110.655H43.5283V124.873H41.3549L33.5147 115.245V124.873H30.8945V110.655H33.0678L40.9081 120.283V110.655ZM48.374 112.239C47.4397 112.239 46.7491 111.569 46.7491 110.716C46.7491 109.863 47.4397 109.192 48.374 109.192C49.3083 109.192 49.9989 109.822 49.9989 110.655C49.9989 111.549 49.3287 112.239 48.374 112.239ZM47.0944 124.873V114.027H49.6333V124.873H47.0944ZM57.0077 111.203C56.439 111.203 56.0531 111.65 56.0124 112.422H54.6516C54.6922 110.756 55.5453 109.7 56.8452 109.7C58.1858 109.7 58.8764 111.041 59.6076 111.041C60.1763 111.041 60.5622 110.614 60.6029 109.883H61.9637C61.9231 111.467 61.07 112.544 59.7701 112.544C58.4295 112.544 57.7389 111.203 57.0077 111.203ZM59.1201 113.905C61.72 113.905 63.6496 115.387 63.6496 118.658V124.873H61.1106V118.983C61.1106 117.053 60.156 116.119 58.5311 116.119C56.7233 116.119 55.5046 117.216 55.5046 119.389V124.873H52.9657V114.027H55.3828V115.428C56.2156 114.433 57.5358 113.905 59.1201 113.905ZM71.8444 125.015C68.5133 125.015 66.0759 122.7 66.0759 119.45C66.0759 116.2 68.5133 113.905 71.8444 113.905C75.2161 113.905 77.6332 116.2 77.6332 119.45C77.6332 122.7 75.2161 125.015 71.8444 125.015ZM71.8444 122.842C73.6927 122.842 75.0739 121.522 75.0739 119.45C75.0739 117.378 73.6927 116.058 71.8444 116.058C70.0163 116.058 68.6351 117.378 68.6351 119.45C68.6351 121.522 70.0163 122.842 71.8444 122.842ZM83.4124 125.015C81.6047 125.015 79.797 124.487 78.822 123.796L79.797 121.867C80.7516 122.497 82.2141 122.943 83.5749 122.943C85.1796 122.943 85.8498 122.497 85.8498 121.745C85.8498 119.673 79.147 121.623 79.147 117.297C79.147 115.245 80.9954 113.905 83.9202 113.905C85.3624 113.905 87.0076 114.25 87.9826 114.839L87.0076 116.769C85.9717 116.159 84.9358 115.956 83.8999 115.956C82.3562 115.956 81.625 116.464 81.625 117.175C81.625 119.369 88.3279 117.419 88.3279 121.664C88.3279 123.695 86.4592 125.015 83.4124 125.015Z" fill="black"/>
<path d="M49.7157 42.9671C53.6493 42.9671 56.8494 40.367 56.8494 37.171C56.8494 36.9345 56.7555 36.7077 56.5883 36.5404C56.421 36.3732 56.1942 36.2793 55.9577 36.2793C55.7212 36.2793 55.4944 36.3732 55.3272 36.5404C55.16 36.7077 55.066 36.9345 55.066 37.171C55.066 39.1557 53.1345 40.8075 50.6075 41.1268V38.2968C50.7018 38.2497 50.7923 38.1953 50.8781 38.1341L52.3914 37.0542C52.6691 36.8526 52.8948 36.5878 53.0498 36.2817C53.2047 35.9755 53.2845 35.6368 53.2825 35.2937C53.2825 34.1164 52.3613 33.1586 51.2291 33.1586H48.2023C47.07 33.1586 46.1489 34.1164 46.1489 35.2937C46.1469 35.6368 46.2266 35.9755 46.3816 36.2817C46.5365 36.5878 46.7622 36.8526 47.0399 37.0542L48.5533 38.1341C48.6391 38.1954 48.7296 38.2498 48.824 38.2968V41.1268C46.297 40.8075 44.3655 39.1557 44.3655 37.171C44.3655 36.9345 44.2715 36.7077 44.1043 36.5404C43.9371 36.3732 43.7102 36.2793 43.4737 36.2793C43.2372 36.2793 43.0104 36.3732 42.8432 36.5404C42.676 36.7077 42.582 36.9345 42.582 37.171C42.582 40.367 45.7822 42.9671 49.7157 42.9671ZM48.0761 35.6022C48.0298 35.5655 47.9927 35.5184 47.9677 35.4648C47.9428 35.4112 47.9308 35.3525 47.9325 35.2934C47.9325 35.1028 48.0563 34.9417 48.2025 34.9417H51.2294C51.3758 34.9417 51.4994 35.1028 51.4994 35.2934C51.5011 35.3525 51.4891 35.4112 51.4641 35.4648C51.4392 35.5184 51.4021 35.5655 51.3557 35.6022L49.8424 36.6821C49.8061 36.71 49.7617 36.7252 49.7159 36.7252C49.6702 36.7252 49.6257 36.71 49.5894 36.6821L48.0761 35.6022Z" fill="black"/>
<path d="M55.066 33.1583C55.5585 33.1583 55.9577 32.7591 55.9577 32.2666C55.9577 31.7741 55.5585 31.3749 55.066 31.3749C54.5736 31.3749 54.1743 31.7741 54.1743 32.2666C54.1743 32.7591 54.5736 33.1583 55.066 33.1583Z" fill="black"/>
<path d="M44.3656 33.1583C44.8581 33.1583 45.2573 32.7591 45.2573 32.2666C45.2573 31.7741 44.8581 31.3749 44.3656 31.3749C43.8731 31.3749 43.4739 31.7741 43.4739 32.2666C43.4739 32.7591 43.8731 33.1583 44.3656 33.1583Z" fill="black"/>
<path d="M72.9104 50.9926C73.6158 50.9926 74.3054 50.7834 74.892 50.3915C75.4786 49.9996 75.9357 49.4425 76.2057 48.7908C76.4757 48.139 76.5463 47.4218 76.4087 46.7299C76.2711 46.038 75.9313 45.4025 75.4325 44.9036C74.9337 44.4048 74.2981 44.0651 73.6062 43.9275C72.9143 43.7898 72.1971 43.8605 71.5454 44.1304C70.8936 44.4004 70.3366 44.8576 69.9446 45.4441C69.5527 46.0307 69.3435 46.7203 69.3435 47.4258C69.3446 48.3714 69.7207 49.2781 70.3894 49.9467C71.0581 50.6154 71.9647 50.9916 72.9104 50.9926ZM72.9104 45.6423C73.2631 45.6423 73.6079 45.7469 73.9012 45.9429C74.1945 46.1389 74.423 46.4174 74.558 46.7433C74.693 47.0692 74.7283 47.4278 74.6595 47.7737C74.5907 48.1197 74.4209 48.4374 74.1714 48.6868C73.922 48.9363 73.6042 49.1061 73.2583 49.1749C72.9123 49.2437 72.5538 49.2084 72.2279 49.0734C71.902 48.9385 71.6235 48.7099 71.4275 48.4166C71.2315 48.1233 71.1269 47.7785 71.1269 47.4258C71.1275 46.953 71.3156 46.4997 71.6499 46.1653C71.9842 45.831 72.4375 45.6429 72.9104 45.6423Z" fill="black"/>
<path d="M85.3944 52.776H80.0442V41.1837C80.0443 41.0007 79.9878 40.8222 79.8825 40.6726L73.6405 31.7555C73.5583 31.638 73.449 31.5421 73.3218 31.4759C73.1946 31.4097 73.0534 31.3751 72.91 31.3751C72.7666 31.3751 72.6254 31.4097 72.4982 31.4759C72.371 31.5421 72.2617 31.638 72.1795 31.7555L65.9375 40.6726C65.8325 40.8223 65.7763 41.0008 65.7767 41.1837V46.7639C64.5556 45.1223 62.9265 43.7602 60.9149 42.7095C62.901 40.375 63.9833 37.3416 63.9833 34.05C63.9879 32.5955 63.7673 31.1491 63.3293 29.7622C64.1978 29.3037 64.9459 28.6468 65.5128 27.8448C66.0797 27.0428 66.4493 26.1184 66.5916 25.1466C66.7339 24.1749 66.645 23.1833 66.3319 22.2524C66.0189 21.3215 65.4906 20.4776 64.7901 19.7894C64.0895 19.1011 63.2364 18.5878 62.3001 18.2913C61.3639 17.9948 60.3708 17.9234 59.4018 18.0829C58.4327 18.2424 57.5149 18.6283 56.7231 19.2092C55.9313 19.7902 55.2877 20.5498 54.8447 21.4263C53.1836 20.9145 51.4539 20.6609 49.7159 20.6743C47.9779 20.6609 46.2483 20.9146 44.5874 21.4264C44.1444 20.5499 43.5008 19.7903 42.709 19.2093C41.9171 18.6284 40.9994 18.2424 40.0303 18.0829C39.0613 17.9234 38.0682 17.9948 37.132 18.2913C36.1957 18.5878 35.3426 19.1011 34.642 19.7893C33.9414 20.4776 33.4132 21.3215 33.1001 22.2524C32.7871 23.1832 32.6981 24.1748 32.8404 25.1466C32.9827 26.1183 33.3523 27.0428 33.9192 27.8448C34.486 28.6468 35.2341 29.3037 36.1026 29.7622C35.6645 31.1491 35.4438 32.5955 35.4484 34.05C35.4484 37.3416 36.5312 40.3751 38.5169 42.7095C34.1756 44.9769 31.616 48.6957 31.0909 53.537C31.0897 53.5482 31.0886 53.5593 31.0878 53.5705L31.0021 54.7946C30.9993 54.8348 30.9993 54.8752 31.0021 54.9154C31.0734 55.9592 31.4486 56.9593 32.0813 57.7925C32.714 58.6257 33.5767 59.2555 34.563 59.6045C33.9746 60.8102 33.6709 62.1349 33.675 63.4765C33.675 67.9016 36.8752 71.5019 40.8088 71.5019C42.9266 71.5019 44.8307 70.4573 46.1384 68.8032C47.2388 69.4038 48.4723 69.7185 49.7259 69.7185C50.9795 69.7185 52.213 69.4038 53.3134 68.8032C54.6211 70.4573 56.5252 71.5019 58.643 71.5019C61.4381 71.5019 63.8614 69.6833 65.0309 67.0434H85.3944C85.6309 67.0434 85.8577 66.9494 86.025 66.7822C86.1922 66.615 86.2861 66.3882 86.2861 66.1517V53.6677C86.2861 53.4312 86.1922 53.2044 86.025 53.0371C85.8577 52.8699 85.6309 52.776 85.3944 52.776ZM72.9104 33.8215L77.4398 40.292H68.3811L72.9104 33.8215ZM67.5602 42.0754H78.2607V52.776H68.2382C68.0977 51.8647 67.8706 50.969 67.5602 50.1008V42.0754ZM64.8858 59.5982C65.7261 59.2966 66.4781 58.7908 67.0743 58.1262H68.4519V61.6931H65.5969C65.4511 60.9671 65.212 60.263 64.8858 59.5982ZM66.5659 53.7129L66.6462 54.8558C66.582 55.6106 66.2797 56.3254 65.7828 56.8972C65.286 57.469 64.6203 57.8682 63.8818 58.0371C62.764 56.6755 61.2335 55.7507 59.5159 55.5137C59.3535 51.8868 58.131 48.5402 56.1335 46.1972C57.3929 45.6652 58.5607 44.9383 59.5941 44.0433C63.6788 45.9999 66.0855 49.3308 66.5659 53.7123V53.7129ZM60.4164 19.7826C61.3962 19.7822 62.3488 20.1047 63.1269 20.7C63.9051 21.2953 64.4655 22.1303 64.7215 23.0761C64.9775 24.0218 64.9149 25.0255 64.5433 25.9321C64.1717 26.8386 63.5119 27.5976 62.6658 28.0915C62.0433 26.7872 61.1984 25.6011 60.169 24.5867C59.1067 23.5448 57.8722 22.6945 56.52 22.0736C56.9071 21.3798 57.4723 20.8018 58.1571 20.3991C58.842 19.9964 59.6219 19.7836 60.4164 19.7826ZM34.5567 24.2411C34.5565 23.2533 34.8842 22.2934 35.4886 21.5121C36.0929 20.7308 36.9396 20.1722 37.8957 19.9242C38.8519 19.6762 39.8633 19.7527 40.7712 20.1417C41.6792 20.5307 42.4322 21.2102 42.9122 22.0736C41.56 22.6945 40.3254 23.5447 39.2632 24.5867C38.2337 25.6011 37.3888 26.787 36.7664 28.0914C36.0945 27.6978 35.5372 27.1354 35.1496 26.4601C34.762 25.7847 34.5576 25.0198 34.5567 24.2411ZM40.5137 25.8582C42.776 23.6336 45.9584 22.4577 49.7159 22.4577C53.4733 22.4577 56.6557 23.6336 58.9181 25.8584C61.0344 27.9394 62.1998 30.8485 62.1998 34.05C62.1998 37.2514 61.0344 40.1606 58.9181 42.2416C56.6557 44.4663 53.4736 45.6423 49.7159 45.6423C45.9581 45.6423 42.776 44.4663 40.5137 42.2417C38.3973 40.1606 37.2319 37.2514 37.2319 34.05C37.2319 30.8485 38.3973 27.9394 40.5137 25.8582ZM32.7857 54.8555L32.8657 53.7126C33.3462 49.3307 35.7526 45.9998 39.8375 44.043C40.8755 44.9419 42.049 45.6711 43.3146 46.2038C41.323 48.5475 40.0992 51.9039 39.9359 55.5133C38.2168 55.7505 36.6846 56.6772 35.5667 58.0404C34.8246 57.8745 34.1548 57.4761 33.6547 56.9034C33.1545 56.3306 32.8501 55.6132 32.7857 54.8555ZM40.8088 69.7185C37.8585 69.7185 35.4585 66.9184 35.4585 63.4765C35.4585 60.0346 37.8585 57.2345 40.8088 57.2345C43.759 57.2345 46.159 60.0346 46.159 63.4765C46.159 66.9184 43.759 69.7185 40.8088 69.7185ZM49.7259 67.9351C48.8068 67.9321 47.9018 67.7092 47.0864 67.2853C47.6541 66.096 47.9467 64.7943 47.9425 63.4765C47.9425 59.3994 45.2253 56.025 41.7214 55.5191C41.8929 52.0414 43.1423 48.8624 45.1485 46.8387C46.6379 47.2374 48.174 47.4348 49.7159 47.4257C51.2629 47.435 52.8042 47.2363 54.2983 46.8349C56.3109 48.8581 57.5603 52.0245 57.7307 55.5193C54.2267 56.0248 51.5093 59.3992 51.5093 63.4765C51.5051 64.7943 51.7977 66.096 52.3654 67.2853C51.5499 67.7092 50.6449 67.9321 49.7259 67.9351ZM58.643 69.7185C55.6928 69.7185 53.2927 66.9184 53.2927 63.4765C53.2927 60.0346 55.6928 57.2345 58.643 57.2345C61.5933 57.2345 63.9933 60.0346 63.9933 63.4765C63.9933 66.9184 61.5933 69.7185 58.643 69.7185ZM65.7767 63.4765H69.3436C69.5801 63.4765 69.8069 63.3826 69.9741 63.2153C70.1414 63.0481 70.2353 62.8213 70.2353 62.5848V57.2345C70.2353 56.998 70.1414 56.7712 69.9741 56.604C69.8069 56.4368 69.5801 56.3428 69.3436 56.3428H68.135C68.2985 55.8828 68.3977 55.4025 68.4299 54.9154C68.4326 54.8752 68.4326 54.8348 68.4299 54.7946L68.4134 54.5594H72.0187V65.2599H65.5969C65.7163 64.673 65.7765 64.0755 65.7767 63.4765ZM84.5027 65.2599H73.8022V54.5594H84.5027V65.2599Z" fill="black"/>
<path d="M76.4774 63.4766H81.8277C81.9797 63.4766 82.1291 63.4377 82.2619 63.3637C82.3946 63.2897 82.5063 63.1829 82.5862 63.0536C82.6661 62.9243 82.7116 62.7768 82.7184 62.6249C82.7253 62.4731 82.6932 62.322 82.6252 62.186L79.95 56.8358C79.876 56.6877 79.7621 56.5631 79.6213 56.4761C79.4804 56.389 79.3181 56.3429 79.1525 56.3429C78.9869 56.3429 78.8246 56.389 78.6838 56.4761C78.5429 56.5631 78.4291 56.6877 78.355 56.8358L75.6799 62.186C75.6119 62.322 75.5798 62.4731 75.5866 62.6249C75.5934 62.7768 75.6389 62.9243 75.7189 63.0536C75.7988 63.1829 75.9104 63.2897 76.0431 63.3637C76.1759 63.4377 76.3254 63.4766 76.4774 63.4766ZM79.1525 59.2286L80.3849 61.6931H77.9202L79.1525 59.2286Z" fill="black"/>
</svg>
